X: 97
T: No_57_Dream_of_Domestic_Cattle.krn
N: Derived from No_57_Dream_of_Domestic_Cattle.krn
%%abc-version 2.0
%%abcx-abcm2ps-target-version 5.9.1 (29 Sep 2008)
%%abc-creator hum2abc beta
%%abcx-conversion-date 2019/03/15 08:35:45
%%humdrum-veritas 3460243461
%%humdrum-veritas-data 29934882
%%linebreak <none>
%%barnumbers 0
L: 1/8
M: 3/4
K: D clef=bass
[K:clef=bass][M:3/4]z4z A, ]|:  
D2(3DB,A,A,2 ||  
[M:2/4](3B,A,A, A,3/A,/ ||  
[M:3/4]A,4E,/ z/ A,/A,/ | 
D2(3DB,A,A,2 ||  
[M:2/4](3B,A,A, A,A, ||  
[M:3/4]A,4z E, | 
A,2(3A,F,E,D,2 ||  
[M:2/4](3E,D,D, D,D, ||  
[M:3/4]D,4z D, | 
E,2(3E,D,B,,A,,2 ||  
[M:2/4](3B,,A,,A,, A,,A,, | 
A,,4 ||  
[M:3/4]A,,2z A,A,2 :|]  
[M:2/4]A,,2z2 |]  



